public/assets/logo-inverted.svg

<?xml version="1.0" encoding="UTF-8"?>
<svg fill="none" viewBox="0 0 24 24" xmlns="http://www.w3.org/2000/svg">
<g stroke="#fff" stroke-linecap="round" stroke-width="1.5">
<path d="M21 22H11M3 22H7"/>
<path d="m19 22v-7"/>
<path d="m5 22v-7"/>
<path d="m12 2h-4.5278c-1.2028 0-1.8042 0-2.2875 0.2987-0.48331 0.2987-0.75227 0.83661-1.2902 1.9124l-1.4036 3.5482c-0.32429 0.81976-0.60802 1.786-0.06214 2.4782 0.36622 0.4644 0.9339 0.7625 1.5712 0.7625 1.1046 0 2-0.8954 2-2 0 1.1046 0.89543 2 2 2s2-0.8954 2-2c0 1.1046 0.89539 2 2 2s2-0.8954 2-2c0 1.1046 0.8954 2 2 2s2-0.8954 2-2c0 1.1046 0.8954 2 2 2 0.6374 0 1.2051-0.2981 1.5713-0.7625 0.5459-0.69225 0.2622-1.6584-0.0621-2.4782l-1.4036-3.5482c-0.5379-1.0758-0.8069-1.6137-1.2902-1.9124s-1.0847-0.2987-2.2875-0.2987h-0.5278" stroke-linejoin="round"/>
</g>
</svg>

<svg viewBox="0 0 24 24" fill="none" xmlns="http://www.w3.org/2000/svg"><g id="SVGRepo_bgCarrier" stroke-width="0"></g><g id="SVGRepo_tracerCarrier" stroke-linecap="round" stroke-linejoin="round"></g><g id="SVGRepo_iconCarrier"> <path d="M21 22H11M3 22H7" stroke="#ffffff" stroke-width="1.5" stroke-linecap="round"></path> <path d="M19 22V15" stroke="#ffffff" stroke-width="1.5" stroke-linecap="round"></path> <path d="M5 22V15" stroke="#ffffff" stroke-width="1.5" stroke-linecap="round"></path> <path d="M11.9999 2H7.47214C6.26932 2 5.66791 2 5.18461 2.2987C4.7013 2.5974 4.43234 3.13531 3.89443 4.21114L2.49081 7.75929C2.16652 8.57905 1.88279 9.54525 2.42867 10.2375C2.79489 10.7019 3.36257 11 3.99991 11C5.10448 11 5.99991 10.1046 5.99991 9C5.99991 10.1046 6.89534 11 7.99991 11C9.10448 11 9.99991 10.1046 9.99991 9C9.99991 10.1046 10.8953 11 11.9999 11C13.1045 11 13.9999 10.1046 13.9999 9C13.9999 10.1046 14.8953 11 15.9999 11C17.1045 11 17.9999 10.1046 17.9999 9C17.9999 10.1046 18.8953 11 19.9999 11C20.6373 11 21.205 10.7019 21.5712 10.2375C22.1171 9.54525 21.8334 8.57905 21.5091 7.75929L20.1055 4.21114C19.5676 3.13531 19.2986 2.5974 18.8153 2.2987C18.332 2 17.7306 2 16.5278 2H16" stroke="#ffffff" stroke-width="1.5" stroke-linecap="round" stroke-linejoin="round"></path> </g></svg>
